!!!AGN: Motet
!!!SCT: Sherr (1989)
!!!voices: 5
!!!COM: Maistre Jan
!!!OTL: O sacrum convivium (BolC Q19)
**kern	**kern	**kern	**kern	**kern
*part5	*part4	*part3	*part2	*part1
*staff5	*staff4	*staff3	*staff2	*staff1
*I"Bassus	*I"Tenor II	*I"Tenor I	*I"Altus	*I"Superius
*I'B	*I'T. II	*I'T. I	*I'A	*I'S
*clefF4	*clefGv2	*clefGv2	*clefG2	*clefG2
*k[b-]	*k[b-]	*k[b-]	*k[b-]	*k[b-]
*F:	*F:	*F:	*F:	*F:
*M2/1	*M2/1	*M2/1	*M2/1	*M2/1
*met(C|)	*met(C|)	*met(C|)	*met(C|)	*met(C|)
!!section: Prima pars: O sacrum convivium
!!!OMD: Prima pars: O sacrum convivium
0r	0r	0r	0r	0a
=1	=1	=1	=1	=1
0r	0r	0r	0r	1a
.	.	.	.	[1dd
=2	=2	=2	=2	=2
0r	0r	0r	0d	2dd]
.	.	.	.	2dd
.	.	.	.	1ff
=3	=3	=3	=3	=3
0r	0r	0r	1d	1ff
.	.	.	[1g	1ee
=4	=4	=4	=4	=4
0r	0G	0r	2g]	1dd
.	.	.	2g	.
.	.	.	1b-y	4dd
.	.	.	.	4cc
.	.	.	.	4b-y
.	.	.	.	4a
=5	=5	=5	=5	=5
0r	1G	0r	1b-y	2g
.	.	.	.	2dd
.	[1c	.	1a	2ee
.	.	.	.	2ff
=6	=6	=6	=6	=6
0C	2c]	0r	1g	0gg
.	2c	.	.	.
.	1e	.	4g	.
.	.	.	4f	.
.	.	.	4e	.
.	.	.	4d	.
=7	=7	=7	=7	=7
1C	1e	0r	2c	1gg
.	.	.	2g	.
[1F	2d	.	2.a	[1ff
.	2c	.	.	.
.	.	.	4b-y	.
=8	=8	=8	=8	=8
2F]	1.f	0F	2.cc	2ff]
2F	.	.	.	4ee
.	.	.	4b-y	4dd
1A	.	.	4a	[1cc
.	.	.	4g	.
.	4e	.	[2g	.
.	4d	.	.	.
=9	=9	=9	=9	=9
1A	1c	1F	2g]	1cc]
.	.	.	2f#i	.
[1G	[1d	[1B-y	[1g	1b-y
=10	=10	=10	=10	=10
2G]	1d]	2B-]	1g]	1.dd
4F	.	2B-y	.	.
4E	.	.	.	.
[1D	[1f	1d	2.a	.
.	.	.	.	4cc
.	.	.	8b-yL	4b-y
.	.	.	8ccJ	.
=11	=11	=11	=11	=11
1D]	1f]	1d	1dd	2a
.	.	.	.	2b-y
1r	1e	[1c	1g	[1cc
=12	=12	=12	=12	=12
1A	1r	2c]	1r	1cc]
.	.	4B-y	.	.
.	.	4A	.	.
[1B-y	[1d	[1G	[1g	[1dd
=13	=13	=13	=13	=13
2B-]	2d]	1G]	1g]	1dd]
2B-y	2d	.	.	.
2.A	1e	[1c	[1a	[1cc
4G	.	.	.	.
=14	=14	=14	=14	=14
2F	1f	2c]	2a]	1cc]
4E	.	2d	2b-y	.
4D	.	.	.	.
1C	1g	2.e	[1cc	1r
.	.	4f	.	.
=15	=15	=15	=15	=15
1C	1e	1.g	1cc]	1cc
[1G	1d	.	[1b-y	1dd
.	.	4f	.	.
.	.	4e	.	.
=16	=16	=16	=16	=16
2G]	2r	1d	2b-]	1dd
2F	2A	.	2a	.
2G	2.B-y	2r	2.g	2.b-y
[2B-y	.	[2d	.	.
.	4c	.	4f	4a
=17	=17	=17	=17	=17
2B-]	4d	4d]	2g	2g
.	4e	4c	.	.
2A	1f	1c	2a	2f
1G	.	.	2b-y	1g
.	2e	2B-y	2g	.
=18	=18	=18	=18	=18
0F	1.f	1c	0cc	[0a
.	.	1r	.	.
.	2e	.	.	.
=19	=19	=19	=19	=19
1r	2d	1f	1r	1a]
.	4c	.	.	.
.	4B-y	.	.	.
1F	1A	1f	1a	1r
=20	=20	=20	=20	=20
1F	1r	1f	1a	1cc
1F	1f	[1c	1a	2cc
.	.	.	.	2dd
=21	=21	=21	=21	=21
1.C	2e	2c]	0cc	2.ee
.	1g	2d	.	.
.	.	.	.	4ff
.	.	2e	.	[1gg
2D	2f	2f	.	.
=22	=22	=22	=22	=22
2E	1e	1.g	1.cc	1gg]
2F	.	.	.	.
[1G	1d	.	.	2r
.	.	4f	2b-y	2g
.	.	4e	.	.
=23	=23	=23	=23	=23
1G]	1r	0d	2g	1b-y
.	.	.	2.b-y	.
1r	1g	.	.	2g
.	.	.	4cc	.
.	.	.	[2dd	[2b-y
=24	=24	=24	=24	=24
1G	1g	2r	4dd]	4b-]
.	.	.	4cc	4cc
.	.	2G	4b-y	2.dd
.	.	.	4a	.
1G	1g	1B-y	2.g	.
.	.	.	.	4cc
.	.	.	.	4b-y
.	.	.	4a	4a
=25	=25	=25	=25	=25
1G	2.d	2.B-y	1b-y	1g
.	4e	4c	.	.
[1D	[1f	[1d	[1a	2r
.	.	.	.	[2dd
=26	=26	=26	=26	=26
1D]	1f]	2d]	0a]	2dd]
.	.	2e	.	2dd
[1D	[1d	[1f	.	1dd
=27	=27	=27	=27	=27
2D]	2d]	1f]	2r	1a
2D	2d	.	1dd	.
2.G	[1d	1g	.	[1b-y
.	.	.	2dd	.
4A	.	.	.	.
=28	=28	=28	=28	=28
1B-y	2d]	2f	1dd	1b-]
.	2G	2d	.	.
2F	[1c	1f	[1a	[1cc
2G	.	.	.	.
=29	=29	=29	=29	=29
1A	1c]	2e	1a]	1cc]
.	.	2f	.	.
[1G	1d	1g	[1b-y	1r
=30	=30	=30	=30	=30
1G]	1.g	1d	2b-]	1r
.	.	.	4a	.
.	.	.	4g	.
1r	.	2r	[1b-y	[1dd
.	2g	2G	.	.
=31	=31	=31	=31	=31
0r	2f	1B-y	2b-]	2dd]
.	2d	.	2g	2dd
.	1f	2A	2.a	1cc
.	.	2F	.	.
.	.	.	4b-y	.
=32	=32	=32	=32	=32
1r	2e	2.A	1cc	1a
.	2f	.	.	.
.	.	8B-yL	.	.
.	.	8cJ	.	.
[1G	1g	1d	2r	2.b-y
.	.	.	2g	.
.	.	.	.	4cc
=33	=33	=33	=33	=33
2G]	2r	1B-y	1b-y	1dd
2G	2d	.	.	.
1F	[1f	1c	[1a	1r
=34	=34	=34	=34	=34
1D	2f]	1d	1a]	0r
.	2f	.	.	.
2E	1e	[1g	1r	.
2F	.	.	.	.
=35	=35	=35	=35	=35
1G	1d	2g]	1.dd	1.b-y
.	.	2g	.	.
1B-y	2r	2f	.	.
.	2G	2d	2dd	2g
=36	=36	=36	=36	=36
2A	1c	1f	1cc	2.a
2F	.	.	.	.
.	.	.	.	4b-y
1A	1c	2e	1a	1cc
.	.	2f	.	.
=37	=37	=37	=37	=37
0G	1d	1g	2b-y	1r
.	.	.	2cc	.
.	2.B-y	2r	1dd	2r
.	.	2g	.	[2dd
.	4c	.	.	.
=38	=38	=38	=38	=38
1G	2d	1b-y	1g	2dd]
.	2G	.	.	2dd
2F	1d	[1a	2r	1ff
2D	.	.	2dd	.
=39	=39	=39	=39	=39
0A	1.e	2a]	2cc	[0ee
.	.	4g	2a	.
.	.	4f	.	.
.	.	1a	[1cc	.
.	4d	.	.	.
.	4c	.	.	.
=40	=40	=40	=40	=40
1.c	1e	1g	2cc]	1ee]
.	.	.	4b-y	.
.	.	.	4a	.
.	2c	1r	1g	[1cc
2B-y	2d	.	.	.
=41	=41	=41	=41	=41
1A	2e	2r	1r	2cc]
.	2f	2c	.	2a
2.G	2g	2.d	[1dd	1b-y
.	2G	.	.	.
4F	.	4e	.	.
=42	=42	=42	=42	=42
1D	0d	1f	2dd]	1a
.	.	.	2cc	.
2r	.	1g	1b-y	1dd
2G	.	.	.	.
=43	=43	=43	=43	=43
1A	2r	1e	0a	2cc
.	2c	.	.	2a
2F	1f	1r	.	2.cc
2G	.	.	.	.
.	.	.	.	4b-y
=44	=44	=44	=44	=44
1A	2e	1c	1cc	1a
.	2f	.	.	.
[1G	[1g	1d	2b-y	1r
.	.	.	2g	.
=45	=45	=45	=45	=45
1G]	2g]	2B-y	2.b-y	1dd
.	4f	2G	.	.
.	4e	.	4cc	.
1G	1d	2.B-y	1dd	2b-y
.	.	.	.	2g
.	.	4c	.	.
=46	=46	=46	=46	=46
2F	0f	1d	1dd	2a
2D	.	.	.	2b-y
2.F	.	2r	2cc	1a
.	.	2d	2a	.
4G	.	.	.	.
=47	=47	=47	=47	=47
0A	2e	2c	2.cc	1r
.	2c	2A	.	.
.	.	.	4b-y	.
.	2.e	1c	1a	1cc
.	4f	.	.	.
=48	=48	=48	=48	=48
1.G	1g	1d	2r	2b-y
.	.	.	2.b-y	2g
.	[1d	1G	.	2.b-y
.	.	.	4a	.
4F	.	.	[2g	.
4E	.	.	.	4cc
=49	=49	=49	=49	=49
0D	0d_	0A	2g]	1dd
.	.	.	4f#i	.
.	.	.	4e	.
.	.	.	1f#i	2r
.	.	.	.	2a
=50	=50	=50	=50	=50
1r	1d]	1G	1g	2b-y
.	.	.	.	2g
[1G	2B-y	[1d	2r	2.b-y
.	2G	.	2dd	.
.	.	.	.	4cc
=51	=51	=51	=51	=51
1G]	2.B-y	1d]	2b-y	1dd
.	.	.	2g	.
.	4c	.	.	.
2F	1d	[1f	2a	1dd
2D	.	.	2b-y	.
=52	=52	=52	=52	=52
2.F	2r	1f]	1a	2cc
.	2d	.	.	2a
4G	.	.	.	.
[1A	2c	2e	1r	2.cc
.	2A	2c	.	.
.	.	.	.	4b-y
=53	=53	=53	=53	=53
1A]	1c	2.e	1cc	1a
.	.	4f	.	.
[1G	[1d	[1g	2b-y	1r
.	.	.	2g	.
=54	=54	=54	=54	=54
1G]	1d]	1g]	2.b-y	1dd
.	.	.	4cc	.
1r	2G	2d	[1dd	2b-y
.	2g	2G	.	2g
=55	=55	=55	=55	=55
0B-y	2f	2d	1dd]	2.b-y
.	2d	1B-y	.	.
.	.	.	.	4cc
.	2.f	.	1b-y	1dd
.	.	4A	.	.
.	4g	4G	.	.
=56	=56	=56	=56	=56
2A	1a	4F	1cc	1ff
.	.	4G	.	.
2F	.	4A	.	.
.	.	4B-y	.	.
2.A	2r	2c	1a	2ee
.	2f	2F	.	[2dd
4B-y	.	.	.	.
=57	=57	=57	=57	=57
2c	2e	2r	2g	4dd]
.	.	.	.	4cc
2A	2c	2F	2f	1cc
1G	1d	2B-y	1g	.
.	.	2G	.	2bnXi
=58	=58	=58	=58	=58
1r	1.e	2.c	1g	[0ccl
.	.	4d	.	.
1c	.	2e	1a	.
.	4d	2c	.	.
.	4c	.	.	.
=59	=59	=59	=59	=59
1A	[0cl	1e	0a	0cc_
2.F	.	1f	.	.
4E	.	.	.	.
=60	=60	=60	=60	=60
00Cl	00c]	00el	00gl	00cc]
==	==	==	==	==
*-	*-	*-	*-	*-
!!!system-decoration: [*]
!!!RDF**kern: i = editorial accidental
!!!RDF**kern: l = terminal long
!!!ENC: Benjamin Ory
!!!END: 2021/1/13
!!!EED: Benjamin Ory
!!!EEV: 2021/05/15
!!!YEC: Copyright 2021 Benjamin Ory, All Rights Reserved
!!!ONB: Translated from MusicXML on 2021/05/15